app/src/main/res/raw/timer.svg

<?xml version="1.0" encoding="utf-8"?>
<!-- Generator: Adobe Illustrator 16.0.0, SVG Export Plug-In . SVG Version: 6.00 Build 0)  -->
<!DOCTYPE svg PUBLIC "-//W3C//DTD SVG 1.1//EN" "http://www.w3.org/Graphics/SVG/1.1/DTD/svg11.dtd">
<svg version="1.1" id="Layer_1" xmlns="http://www.w3.org/2000/svg" xmlns:xlink="http://www.w3.org/1999/xlink" x="0px" y="0px"
	 width="24px" height="24px" viewBox="0 0 24 24" enable-background="new 0 0 24 24" xml:space="preserve">
<path d="M12,20c-3.866,0-7-3.134-7-7s3.134-7,7-7s7,3.134,7,7S15.866,20,12,20 M19.029,7.39l1.421-1.42C20,5.46,19.55,5,19.04,4.56
	L17.62,6c-1.55-1.26-3.5-2-5.62-2c-4.971,0-9,4.029-9,9c0,4.971,4.029,9,9,9c5,0,9-4.03,9-9C21,10.88,20.26,8.93,19.029,7.39 M11,14
	h2V8h-2 M15,1H9v2h6V1z"/>
</svg>

<?xml version="1.0" encoding="UTF-8"?><!DOCTYPE svg PUBLIC "-//W3C//DTD SVG 1.1//EN" "http://www.w3.org/Graphics/SVG/1.1/DTD/svg11.dtd"><svg xmlns="http://www.w3.org/2000/svg" xmlns:xlink="http://www.w3.org/1999/xlink" version="1.1" width="24" height="24" viewBox="0 0 24 24"><path d="M12,20A7,7 0 0,1 5,13A7,7 0 0,1 12,6A7,7 0 0,1 19,13A7,7 0 0,1 12,20M19.03,7.39L20.45,5.97C20,5.46 19.55,5 19.04,4.56L17.62,6C16.07,4.74 14.12,4 12,4A9,9 0 0,0 3,13A9,9 0 0,0 12,22C17,22 21,17.97 21,13C21,10.88 20.26,8.93 19.03,7.39M11,14H13V8H11M15,1H9V3H15V1Z" /></svg>
